!!!OTL: Versp&auml;tung (71), S. 205
!!!id: T0220
**kern
*clefG2
*k[b-]
*F:
{8cc
=1
8cc
8cc
8b-
8a
8g}
=2
{8cc
=3
8cc
8cc
8b-
8a
8g}
=4
{8f
=5
8f
8a
4cc
4cc
=6
8dd
8cc
8cc
8b-
4b-
=7
8dd
8cc
8cc
8b-
4b-}
=8
{8a
8a
8a
8a
4a
=9
8cc
8b-
8b-
8a
8a}
==
*-
!!!minrhy: 8
!!!meters: 3/4 ]  ZZ[4
!!!cut: Versp&auml;tung (71), S. 205
!!!reg: Luxemburg
!!!trd: Singendes Volk, Esch-Alzette 1937 posth.
!!!rhy1: X  XXXXX
!!!rhy2: X  XXXXX
!!!key: T0220  08  F 3/4 ]  ZZ[4
!!!mod: SECHSTONSKALA DUR ?]  AMBITUS[6
!!!kad: 2243
!!!akz: 5_5_166_35_
!!!fot: 'a__a__b__c__
!!!for: 'a__a__b__aw_
!!!fok: '\__\__^a_^__
!! PHRAS[VORWIEGEND AUFTAKTIG]
!!!fkt: Liebeslieder
!!!bem: Blascheid, hhh Johann Hitting, 1901
!! THILL, Mathias:
!! PR[6] 2K[6] 2G[22] 3K[19] 3G[0] 4A[3] 4Ü[0] 5A[0] 6K[0] 6G[0]
!! 7K[0] 7G[0] 8A[0] MEHR[0] SI[50] ABS[36] SR[28] SP[22]
!! ST[10] 2k[8] 2g[19] 3k[17] 3g[0] 4d[0] 4ü[0] 5d[0] 6k[0] 6g[0]
!! 7k[0] 7g[0] 8d[0] mehr[0] si[44] dm[+6] sr[28] sp[17]
!! 1F[15] 2F[69] 3F[5] 4F[0] LF[0] 2P[10] 3P[0] 4P[0] TRI[0] DF[4] AB[39]
!! TF[0] U3K[0] U3[0] U4[0] U4Ü[0] U5[3] U6K[0] U6[0] U7K[0] U7[0]
!! N1[3] N2K[0] N2[8] N3K[0] N3[22] N4[22] N4Ü[0] N5[35] N6K[0] N6[8]
!!!n7k: 0] N7[0] O1[0] O2K[0] O2[0] O3K[0] O3[0] HÖ[0
!!!RNB: symbol: &auml;      = a umlaut  (UTF-8: Å„)
